FINK
CUT[STILL STILL STILL DIE AUGEN AUFGEMACHT]
REG[Europa, Mitteleuropa, Deutschland]
KEY[F0290  16  F 2/4]
MEL[  1_0_3_0_  5__0_
    6_  5_3_4_2_  1__0_
    3_  2__4#__  5__0_
    3_  2__4#__  5__0_
    5_  6_.54_3_  2__3__  4__0_
    2_  5_.43_2_  3__2__  1__0__ //] >>
FCT[Jugend - Lied, Weihnachten]
